app/images/lesson.svg

<svg width="20" height="20" viewBox="0 0 20 20" fill="none" xmlns="http://www.w3.org/2000/svg">
<path d="M18.6564 5.00216C17.3215 2.68997 15.166 1.03595 12.587 0.344934C10.0081 -0.346159 7.31441 0.00848919 5.00211 1.34353C2.68984 2.67853 1.0359 4.83399 0.344882 7.41298C-0.346133 9.99192 0.00851526 12.6857 1.34348 14.9979C2.6784 17.31 4.83394 18.9641 7.41289 19.6551C8.27406 19.8859 9.14792 20 10.0162 20C11.7482 20 13.4577 19.5457 14.9978 18.6565C17.31 17.3216 18.964 15.1661 19.6551 12.5871C20.3461 10.0081 19.9914 7.31442 18.6564 5.00216ZM18.6495 12.3177C18.0305 14.6281 16.5487 16.5591 14.4773 17.7551C12.4059 18.9511 9.99265 19.2687 7.68226 18.6497C5.37183 18.0307 3.44082 16.5489 2.24484 14.4775C1.04891 12.4061 0.73121 9.99282 1.35031 7.68239C1.96941 5.372 3.45113 3.44103 5.52257 2.24501C6.90246 1.44833 8.43367 1.04142 9.98542 1.04142C10.7632 1.04142 11.5463 1.14368 12.3175 1.35036C14.6279 1.96943 16.559 3.45114 17.7549 5.52263C18.9509 7.59407 19.2686 10.0073 18.6495 12.3177Z" fill="#979797"/>
<path d="M14.7952 9.05675L8.36836 5.34621C8.0273 5.14929 7.62012 5.14937 7.27906 5.34617C6.93801 5.54304 6.73438 5.89574 6.73438 6.28953V13.7106C6.73438 14.1044 6.93797 14.4571 7.27906 14.654C7.44957 14.7525 7.63656 14.8016 7.82363 14.8016C8.01074 14.8016 8.19781 14.7523 8.36832 14.6539L14.7952 10.9434C15.1362 10.7465 15.3398 10.3938 15.3398 10C15.3398 9.60628 15.1362 9.25363 14.7952 9.05675ZM14.2746 10.042L7.84777 13.7525C7.83992 13.7571 7.82355 13.7665 7.79949 13.7525C7.77535 13.7385 7.77535 13.7197 7.77535 13.7107V6.28957C7.77535 6.2805 7.77535 6.26168 7.79949 6.24773C7.80894 6.24226 7.81719 6.24039 7.82422 6.24039C7.83516 6.24039 7.84305 6.24496 7.84785 6.24773L14.2746 9.95828C14.2825 9.96281 14.2988 9.97222 14.2988 10.0001C14.2988 10.028 14.2824 10.0375 14.2746 10.042Z" fill="#979797"/>
<path d="M16.1437 5.25157C14.9058 3.65243 13.045 2.57805 11.0383 2.30387C10.7538 2.26493 10.4911 2.46426 10.4521 2.74915C10.4132 3.03395 10.6126 3.29637 10.8974 3.33532C12.6361 3.57286 14.2483 4.50364 15.3205 5.88879C15.4231 6.02129 15.5769 6.09067 15.7325 6.09067C15.8437 6.09067 15.9559 6.05516 16.0507 5.98172C16.278 5.80578 16.3196 5.47887 16.1437 5.25157Z" fill="#979797"/>
</svg>

<svg width="20" height="20" fill="none" xmlns="http://www.w3.org/2000/svg"><path d="M18.656 5.002A9.93 9.93 0 0 0 12.587.345a9.93 9.93 0 0 0-7.585.999A9.93 9.93 0 0 0 .345 7.413a9.93 9.93 0 0 0 .998 7.585 9.93 9.93 0 0 0 6.07 4.657 9.937 9.937 0 0 0 7.585-.999 9.93 9.93 0 0 0 4.657-6.069 9.93 9.93 0 0 0-.999-7.585zm-.006 7.316a8.896 8.896 0 0 1-4.173 5.437 8.896 8.896 0 0 1-6.795.895 8.896 8.896 0 0 1-5.437-4.172 8.896 8.896 0 0 1-.895-6.796 8.896 8.896 0 0 1 4.173-5.437 8.902 8.902 0 0 1 6.795-.895c2.31.62 4.241 2.101 5.437 4.173a8.896 8.896 0 0 1 .895 6.795z" fill="#979797"/><path d="M14.795 9.057l-6.427-3.71a1.078 1.078 0 0 0-1.089 0c-.341.196-.545.549-.545.943v7.42c0 .394.204.747.545.944a1.086 1.086 0 0 0 1.09 0l6.426-3.71c.341-.198.545-.55.545-.944 0-.394-.204-.746-.545-.943zm-.52.985l-6.427 3.71a.043.043 0 0 1-.049 0c-.024-.014-.024-.032-.024-.041V6.29c0-.01 0-.028.024-.042a.049.049 0 0 1 .025-.008c.011 0 .02.005.024.008l6.427 3.71a.043.043 0 0 1 .024.042.043.043 0 0 1-.024.042zM16.144 5.252a7.85 7.85 0 0 0-5.106-2.948.52.52 0 0 0-.14 1.031A6.8 6.8 0 0 1 15.32 5.89a.52.52 0 1 0 .824-.637z" fill="#979797"/></svg>
